assets/img/about/about7-2.svg

<svg width="58" height="58" viewBox="0 0 58 58" fill="none" xmlns="http://www.w3.org/2000/svg">
<path d="M55.7576 44.0369L51.2684 48.4192C49.5848 50.0642 47.4797 51.2214 45.181 51.7655C42.8822 52.3096 40.4771 52.22 38.226 51.5064C29.6149 48.7706 21.7863 44.0363 15.3904 37.6969C8.99441 31.3567 4.22052 23.5908 1.46742 15.0476C1.32109 14.5875 1.19946 14.12 1.10303 13.6471C0.673092 15.7865 0.798483 17.9992 1.46742 20.0774C4.22129 28.6204 8.99428 36.3866 15.3885 42.7287C21.7827 49.0707 29.6128 53.8048 38.226 56.5362C40.4767 57.2499 42.8814 57.3401 45.18 56.7969C47.4787 56.2536 49.5839 55.0977 51.2684 53.454L55.7576 49.0667C56.5221 48.3207 57.0032 47.3355 57.1194 46.2781C57.2356 45.2206 56.9798 44.1557 56.3953 43.2639C56.2088 43.5417 55.9952 43.8006 55.7576 44.0369Z" fill="#E0E1E2"/>
<path d="M19.3297 16.2059C19.2532 16.2049 19.1801 16.1761 19.1259 16.1258L17.2968 14.419C17.2431 14.3684 17.213 14.3 17.213 14.2288C17.213 14.1576 17.2431 14.0892 17.2968 14.0386C17.352 13.9882 17.4261 13.9599 17.5033 13.9599C17.5806 13.9599 17.6547 13.9882 17.7099 14.0386L19.5335 15.7454C19.5873 15.796 19.6174 15.8644 19.6174 15.9356C19.6174 16.0068 19.5873 16.0752 19.5335 16.1258C19.4793 16.1761 19.4062 16.2049 19.3297 16.2059ZM14.9046 12.0765C14.8666 12.0769 14.8288 12.0699 14.7938 12.0562C14.7587 12.0424 14.7271 12.0221 14.7008 11.9965L12.1047 9.5739C12.0591 9.52204 12.0357 9.45619 12.0393 9.38917C12.0428 9.32215 12.0729 9.25876 12.1238 9.21131C12.1746 9.16387 12.2425 9.13576 12.3144 9.13247C12.3862 9.12918 12.4567 9.15093 12.5123 9.1935L15.1084 11.6161C15.1621 11.6667 15.1923 11.735 15.1923 11.8063C15.1923 11.8775 15.1621 11.9458 15.1084 11.9965C15.0823 12.0223 15.0506 12.0428 15.0156 12.0566C14.9805 12.0704 14.9427 12.0772 14.9046 12.0765ZM9.71241 7.22643C9.63656 7.22728 9.56337 7.20032 9.50859 7.15135L6.90714 4.7238C6.85342 4.67319 6.82329 4.60483 6.82329 4.5336C6.82329 4.46236 6.85342 4.39401 6.90714 4.3434C6.96229 4.29296 7.03643 4.26471 7.11365 4.26471C7.19087 4.26471 7.26501 4.29296 7.32015 4.3434L9.91624 6.76595C9.97029 6.81741 10.0006 6.88659 10.0006 6.95865C10.0006 7.03071 9.97029 7.09989 9.91624 7.15135C9.86057 7.19902 9.78796 7.22577 9.71241 7.22643Z" fill="#1682FC"/>
<path d="M53.4818 51.1764C53.4483 51.1771 53.4151 51.1698 53.3842 51.1549C53.3533 51.14 53.3254 51.118 53.3024 51.0901L51.0126 48.478C50.9654 48.4235 50.9388 48.3498 50.9388 48.2729C50.9388 48.1961 50.9654 48.1224 51.0126 48.0679C51.0612 48.0135 51.1264 47.983 51.1944 47.983C51.2624 47.983 51.3276 48.0135 51.3762 48.0679L53.6612 50.6799C53.7085 50.7345 53.7351 50.8082 53.7351 50.885C53.7351 50.9618 53.7085 51.0355 53.6612 51.0901C53.6381 51.1177 53.6102 51.1396 53.5793 51.1544C53.5485 51.1693 53.5153 51.1768 53.4818 51.1764ZM48.907 45.9523C48.84 45.9491 48.7764 45.9185 48.7276 45.866L46.4425 43.2539C46.3949 43.1984 46.3683 43.1238 46.3683 43.0461C46.3683 42.9684 46.3949 42.8939 46.4425 42.8384C46.4903 42.7843 46.5547 42.754 46.6219 42.754C46.6891 42.754 46.7536 42.7843 46.8013 42.8384L49.0864 45.4558C49.111 45.4821 49.1306 45.5138 49.144 45.5491C49.1574 45.5844 49.1643 45.6224 49.1643 45.6609C49.1643 45.6994 49.1574 45.7374 49.144 45.7727C49.1306 45.808 49.111 45.8397 49.0864 45.866C49.0387 45.9203 48.9743 45.9512 48.907 45.9523ZM44.3369 40.7228C44.3034 40.7235 44.2701 40.7162 44.2392 40.7013C44.2083 40.6864 44.1805 40.6643 44.1575 40.6365L41.8677 38.0244C41.8204 37.9698 41.7939 37.8961 41.7939 37.8193C41.7939 37.7425 41.8204 37.6688 41.8677 37.6143C41.9162 37.5599 41.9815 37.5294 42.0494 37.5294C42.1174 37.5294 42.1827 37.5599 42.2312 37.6143L44.5163 40.2263C44.5636 40.2809 44.5901 40.3546 44.5901 40.4314C44.5901 40.5082 44.5636 40.5819 44.5163 40.6365C44.4931 40.6641 44.4652 40.686 44.4344 40.7008C44.4035 40.7157 44.3703 40.7232 44.3369 40.7228Z" fill="#1682FC"/>
<path d="M42.2204 25.5495C35.8255 25.5495 30.5677 20.7113 29.9173 14.5C29.8731 14.9315 29.8516 15.365 29.8527 15.7988C29.8527 22.6198 35.3886 28.1471 42.2204 28.1471C49.0521 28.1471 54.588 22.6198 54.588 15.7988C54.5875 15.3649 54.5643 14.9314 54.5185 14.5C53.8681 20.7113 48.6102 25.5495 42.2204 25.5495Z" fill="#E0E1E2"/>
<path d="M41.3762 29.8529C38.3172 29.8551 35.3521 28.7279 32.9863 26.6635C30.6205 24.5991 29.0004 21.7252 28.4021 18.5317C27.8039 15.3382 28.2645 12.0226 29.7054 9.15009C31.1464 6.27757 33.4786 4.02589 36.3044 2.7788C39.1303 1.53171 42.2749 1.36639 45.2024 2.31102C48.13 3.25565 50.6592 5.25176 52.359 7.95916C54.0588 10.6666 54.8241 13.9177 54.5243 17.1584C54.2246 20.3992 52.8784 23.429 50.7152 25.7315C49.4917 27.0415 48.0364 28.0803 46.4334 28.7877C44.8304 29.4952 43.1115 29.8572 41.3762 29.8529ZM41.3762 3.32463C38.6683 3.32554 36.0444 4.32593 33.9517 6.15535C31.8589 7.98476 30.4268 10.53 29.8993 13.3575C29.3717 16.1849 29.7815 19.1196 31.0587 21.6615C32.3359 24.2033 34.4015 26.1952 36.9036 27.2976C39.4057 28.4001 42.1895 28.5448 44.7806 27.7073C47.3717 26.8698 49.6099 25.1019 51.1138 22.7046C52.6177 20.3074 53.2943 17.4292 53.0282 14.5605C52.7622 11.6918 51.57 9.01002 49.6547 6.97213C48.5698 5.81191 47.2795 4.89217 45.8585 4.26609C44.4376 3.64002 42.9141 3.32003 41.3762 3.32463Z" fill="#2E3A58"/>
<path d="M41.7939 25.5882C40.5551 25.5888 39.3265 25.3735 38.1681 24.9528C38.0974 24.9268 38.0402 24.8752 38.0088 24.8092C37.9773 24.7432 37.974 24.668 37.9997 24.5998C38.0131 24.5663 38.0333 24.5357 38.0591 24.5097C38.0849 24.4836 38.1158 24.4628 38.15 24.4482C38.1842 24.4337 38.2211 24.4258 38.2585 24.425C38.296 24.4242 38.3332 24.4304 38.3681 24.4435C39.4624 24.8417 40.6234 25.0451 41.7939 25.0436C41.8312 25.0436 41.8682 25.0506 41.9026 25.0643C41.9371 25.078 41.9684 25.0981 41.9948 25.1233C42.0212 25.1486 42.0421 25.1787 42.0564 25.2117C42.0707 25.2447 42.0781 25.2801 42.0781 25.3159C42.0781 25.3517 42.0707 25.3871 42.0564 25.4201C42.0421 25.4532 42.0212 25.4832 41.9948 25.5085C41.9684 25.5338 41.9371 25.5538 41.9026 25.5675C41.8682 25.5812 41.8312 25.5882 41.7939 25.5882ZM43.0569 25.5126C42.9872 25.5129 42.92 25.4882 42.8684 25.4434C42.8168 25.3986 42.7845 25.337 42.7779 25.2705C42.7689 25.1998 42.7892 25.1284 42.8345 25.0719C42.8798 25.0153 42.9464 24.978 43.02 24.9679C44.1804 24.8267 45.304 24.4831 46.3353 23.9543C46.4011 23.9249 46.4761 23.9208 46.5449 23.9428C46.6138 23.9647 46.6712 24.0111 46.7056 24.0724C46.7399 24.1336 46.7485 24.2052 46.7295 24.2723C46.7106 24.3394 46.6655 24.397 46.6037 24.4334C45.5125 24.995 44.3226 25.3591 43.0937 25.5075L43.0569 25.5126ZM35.2002 23.1877C35.1309 23.1883 35.0636 23.165 35.0107 23.1222C34.0836 22.3355 33.3133 21.3939 32.7374 20.3434C32.7199 20.3123 32.7091 20.2782 32.7055 20.2431C32.7018 20.208 32.7055 20.1725 32.7163 20.1387C32.7271 20.105 32.7447 20.0736 32.7682 20.0464C32.7917 20.0192 32.8205 19.9967 32.8531 19.9803C32.9195 19.9463 32.9971 19.9389 33.0691 19.9597C33.1411 19.9805 33.2016 20.0278 33.2373 20.0913C33.7838 21.0827 34.513 21.9711 35.3896 22.7137C35.4447 22.762 35.4783 22.8288 35.4832 22.9002C35.4881 22.9717 35.464 23.0422 35.4159 23.0969C35.3886 23.1257 35.3553 23.1487 35.3181 23.1643C35.2809 23.18 35.2407 23.1879 35.2002 23.1877ZM49.277 22.3304C49.2227 22.3291 49.1699 22.3131 49.1247 22.2844C49.0794 22.2557 49.0435 22.2154 49.021 22.1681C48.9985 22.1208 48.9903 22.0683 48.9974 22.0168C49.0046 21.9652 49.0266 21.9166 49.0612 21.8765C49.8345 21.0358 50.4408 20.0668 50.8504 19.0171C50.8807 18.9556 50.9339 18.9072 50.9995 18.8814C51.0652 18.8556 51.1385 18.8542 51.2051 18.8776C51.2717 18.901 51.3268 18.9474 51.3595 19.0078C51.3922 19.0681 51.4002 19.138 51.3819 19.2037C50.9468 20.3154 50.305 21.3424 49.4874 22.2346C49.4624 22.265 49.4304 22.2894 49.3939 22.306C49.3574 22.3227 49.3174 22.331 49.277 22.3304ZM31.9164 17.2117C31.847 17.2122 31.7798 17.1884 31.7275 17.1447C31.6751 17.1011 31.6413 17.0406 31.6323 16.9746C31.584 16.5779 31.5594 16.1788 31.5586 15.7794C31.5569 14.9944 31.6541 14.2121 31.848 13.4495C31.8655 13.3793 31.9114 13.3186 31.9755 13.2808C32.0396 13.243 32.1168 13.2311 32.1901 13.2478C32.2637 13.2657 32.3271 13.3106 32.3665 13.3729C32.4059 13.4352 32.4181 13.5098 32.4006 13.5806C32.2153 14.3001 32.1217 15.0384 32.1217 15.7794C32.1225 16.157 32.1471 16.5343 32.1953 16.9091C32.2005 16.9446 32.1981 16.9807 32.1884 17.0154C32.1786 17.05 32.1617 17.0824 32.1387 17.1106C32.1156 17.1389 32.0868 17.1624 32.0541 17.1797C32.0213 17.1971 31.9852 17.2079 31.948 17.2117H31.9164ZM51.745 16.0013C51.6696 16.0013 51.5974 15.9726 51.5441 15.9215C51.4908 15.8705 51.4608 15.8012 51.4608 15.729C51.4553 14.6076 51.2359 13.4967 50.8136 12.451C50.7878 12.384 50.7904 12.3101 50.8209 12.245C50.8514 12.18 50.9074 12.129 50.9767 12.103C51.0116 12.09 51.0488 12.0837 51.0862 12.0845C51.1237 12.0854 51.1606 12.0933 51.1948 12.1078C51.229 12.1223 51.2599 12.1432 51.2857 12.1692C51.3115 12.1952 51.3317 12.2258 51.3451 12.2593C51.7907 13.3666 52.0225 14.5422 52.0292 15.729C52.0292 15.7647 52.0218 15.8002 52.0075 15.8332C51.9933 15.8662 51.9723 15.8963 51.9459 15.9215C51.9196 15.9468 51.8882 15.9669 51.8537 15.9806C51.8193 15.9943 51.7823 16.0013 51.745 16.0013ZM33.5899 10.6506C33.5338 10.6504 33.4789 10.6347 33.432 10.6052C33.4007 10.5854 33.3739 10.5598 33.3532 10.5299C33.3324 10.5 33.3182 10.4664 33.3113 10.4311C33.3045 10.3958 33.3051 10.3595 33.3131 10.3244C33.3212 10.2894 33.3366 10.2562 33.3583 10.227C34.0609 9.25021 34.9416 8.40286 35.9579 7.72558C36.0194 7.68435 36.0954 7.66811 36.1694 7.68039C36.2433 7.69267 36.3092 7.73249 36.3526 7.79114C36.3951 7.85068 36.4112 7.92395 36.3974 7.99486C36.3836 8.06577 36.341 8.12854 36.2789 8.16938C35.3191 8.80925 34.4882 9.61061 33.8267 10.5346C33.7995 10.5704 33.7638 10.5995 33.7227 10.6196C33.6816 10.6398 33.6361 10.6504 33.5899 10.6506ZM49.2085 9.69743C49.1687 9.69758 49.1293 9.68955 49.093 9.67389C49.0567 9.65824 49.0243 9.63531 48.9981 9.60666C48.2178 8.77199 47.2873 8.07847 46.2511 7.55916C46.2174 7.54319 46.1873 7.52084 46.1629 7.49346C46.1384 7.46608 46.1199 7.43423 46.1086 7.39984C46.0973 7.36545 46.0934 7.32921 46.0971 7.29332C46.1007 7.25744 46.112 7.22264 46.1301 7.19101C46.1658 7.12766 46.2259 7.08013 46.2976 7.05848C46.3693 7.03683 46.447 7.04277 46.5142 7.07502C47.6116 7.62317 48.5959 8.35796 49.419 9.24356C49.4694 9.298 49.4953 9.36921 49.4914 9.44184C49.4875 9.51447 49.4539 9.58272 49.398 9.63188C49.3456 9.67558 49.278 9.69896 49.2085 9.69743ZM39.3785 6.79765C39.3154 6.79719 39.2542 6.77662 39.2047 6.73918C39.1551 6.70175 39.12 6.64957 39.1048 6.59088C39.0954 6.55644 39.0933 6.52053 39.0985 6.48528C39.1038 6.45002 39.1163 6.41613 39.1354 6.38559C39.1546 6.35506 39.1799 6.32849 39.2099 6.30745C39.2398 6.28641 39.2739 6.27133 39.3101 6.26308C40.5121 5.9766 41.758 5.89973 42.9884 6.03614C43.0587 6.04908 43.1213 6.08692 43.1637 6.14212C43.2061 6.19732 43.2252 6.26581 43.2172 6.33393C43.2093 6.40206 43.1748 6.46479 43.1207 6.50961C43.0665 6.55444 42.9968 6.57806 42.9253 6.57576C42.5496 6.53549 42.1719 6.51529 41.7939 6.51524C41.0029 6.51441 40.2148 6.60585 39.4469 6.78757L39.3785 6.79765Z" fill="#1682FC"/>
<path d="M43.7841 14.2139V10.2353H39.8037V14.2139H35.8233V18.1926H39.8037V22.1765H43.7841V18.1926H47.7645V14.2139H43.7841Z" fill="#1682FC"/>
<path d="M42.2195 58C40.796 58 39.3811 57.779 38.0254 57.345C29.2692 54.5443 21.3096 49.6907 14.8105 43.1889C8.31025 36.6885 3.45677 28.7295 0.654079 19.9744C-0.110381 17.5849 -0.206975 15.0318 0.374743 12.5913C0.956461 10.1508 2.19435 7.91584 3.95453 6.12804L8.39237 1.6192C8.89574 1.10889 9.49503 0.703132 10.1558 0.425257C10.8165 0.147382 11.5257 0.00287369 12.2425 4.24263e-05C12.9593 -0.00278884 13.6696 0.136112 14.3325 0.408759C14.9954 0.681406 15.5979 1.08242 16.1053 1.58873L21.8735 7.36188C22.3776 7.86592 22.7776 8.46435 23.0505 9.12298C23.3233 9.78162 23.4638 10.4876 23.4638 11.2005C23.4638 11.9134 23.3233 12.6193 23.0505 13.278C22.7776 13.9366 22.3776 14.535 21.8735 15.0391L19.3956 17.5169C18.9784 17.9348 18.6912 18.4645 18.5687 19.0421C18.4461 19.6197 18.4935 20.2204 18.705 20.7716C20.7158 26.0015 22.9093 29.6979 25.6055 32.3941C28.3017 35.0902 31.9982 37.2837 37.2333 39.2944C37.7834 39.5055 38.3828 39.5531 38.9593 39.4315C39.5359 39.3099 40.065 39.0243 40.4829 38.6089L42.9608 36.126C43.9803 35.1087 45.3618 34.5374 46.802 34.5374C48.2423 34.5374 49.6237 35.1087 50.6432 36.126L56.4114 41.8992C56.9176 42.4061 57.3185 43.0082 57.5911 43.6706C57.8637 44.3331 58.0025 45.043 57.9997 45.7594C57.9969 46.4757 57.8524 47.1845 57.5746 47.8448C57.2968 48.5051 56.8911 49.1039 56.381 49.6069L51.8771 54.0446C49.3016 56.5791 45.833 57.9997 42.2195 58ZM38.4925 55.8928C40.6175 56.5726 42.8878 56.6584 45.0581 56.1412C47.2283 55.6239 49.2158 54.5232 50.8057 52.958L55.3147 48.5203C55.6814 48.1583 55.9729 47.7274 56.1725 47.2523C56.3721 46.7773 56.4759 46.2674 56.4777 45.7522C56.4796 45.2369 56.3796 44.7263 56.1835 44.2498C55.9874 43.7733 55.699 43.3403 55.335 42.9756L49.5668 37.2025C48.8329 36.4704 47.8386 36.0593 46.802 36.0593C45.7654 36.0593 44.7712 36.4704 44.0373 37.2025L41.5594 39.6854C40.9334 40.3099 40.1399 40.7396 39.2747 40.9225C38.4097 41.1054 37.5101 41.0337 36.6849 40.7161C31.2467 38.6242 27.3827 36.3241 24.529 33.4705C21.6754 30.6169 19.3753 26.758 17.2833 21.3149C16.9656 20.4893 16.8944 19.5893 17.0783 18.7241C17.2622 17.8588 17.6932 17.0655 18.3191 16.4405L20.797 13.9627C21.5288 13.2296 21.9397 12.2362 21.9397 11.2005C21.9397 10.1647 21.5288 9.17132 20.797 8.43831L15.0288 2.66517C14.6663 2.30221 14.2357 2.01445 13.7617 1.81839C13.2877 1.62234 12.7796 1.52186 12.2666 1.52273H12.2514C11.7347 1.5227 11.2233 1.62601 10.7472 1.82657C10.2711 2.02713 9.83988 2.32088 9.47898 2.69056L5.04114 7.19432C3.47596 8.78417 2.37522 10.7717 1.85794 12.9419C1.34066 15.1121 1.42653 17.3824 2.10628 19.5073C4.83101 28.0338 9.55524 35.7851 15.8848 42.1145C22.2144 48.444 29.9659 53.1681 38.4925 55.8928Z" fill="#2E3A58"/>
</svg>

<svg xmlns="http://www.w3.org/2000/svg" width="58" height="58" fill="none"><path fill="#E0E1E2" d="m55.758 44.037-4.49 4.382a13 13 0 0 1-6.087 3.347 13.07 13.07 0 0 1-6.955-.26 56.9 56.9 0 0 1-22.836-13.81A56.14 56.14 0 0 1 1.467 15.049a14 14 0 0 1-.364-1.4 12.8 12.8 0 0 0 .364 6.43 56.2 56.2 0 0 0 13.922 22.65 56.8 56.8 0 0 0 22.837 13.808 13.07 13.07 0 0 0 6.954.26 13 13 0 0 0 6.088-3.342l4.49-4.387a4.584 4.584 0 0 0 .638-5.803q-.28.418-.638.773"/><path fill="#1682FC" d="M19.33 16.206a.3.3 0 0 1-.204-.08l-1.83-1.707a.26.26 0 0 1-.083-.19c0-.071.03-.14.084-.19a.3.3 0 0 1 .206-.08c.078 0 .152.03.207.08l1.823 1.706c.054.051.084.12.084.19 0 .072-.03.14-.084.19a.3.3 0 0 1-.203.08m-4.425-4.13a.3.3 0 0 1-.204-.08l-2.596-2.422a.26.26 0 0 1 .019-.363.303.303 0 0 1 .389-.018l2.595 2.423c.054.05.084.119.084.19s-.03.14-.084.19a.28.28 0 0 1-.203.08m-5.193-4.85a.3.3 0 0 1-.203-.075L6.907 4.724a.26.26 0 0 1-.084-.19c0-.072.03-.14.084-.19a.3.3 0 0 1 .207-.08c.077 0 .151.029.206.08l2.596 2.422c.054.051.085.12.085.193 0 .072-.03.14-.085.192a.32.32 0 0 1-.204.075M53.482 51.176a.2.2 0 0 1-.098-.021.24.24 0 0 1-.082-.065l-2.29-2.612a.3.3 0 0 1-.073-.205c0-.077.026-.15.074-.205a.24.24 0 0 1 .181-.085c.068 0 .134.03.182.085l2.285 2.612a.3.3 0 0 1 .074.205c0 .077-.026.15-.074.205a.25.25 0 0 1-.082.064.2.2 0 0 1-.097.022m-4.575-5.224a.26.26 0 0 1-.18-.086l-2.284-2.612a.32.32 0 0 1-.075-.208.32.32 0 0 1 .075-.208.24.24 0 0 1 .179-.084.24.24 0 0 1 .18.084l2.284 2.618a.3.3 0 0 1 .058.093.32.32 0 0 1-.058.317.25.25 0 0 1-.179.086m-4.57-5.23a.2.2 0 0 1-.098-.02.24.24 0 0 1-.081-.066l-2.29-2.612a.3.3 0 0 1-.074-.205c0-.077.026-.15.074-.205a.24.24 0 0 1 .181-.085c.068 0 .134.03.182.085l2.285 2.612a.3.3 0 0 1 .074.205c0 .077-.026.15-.074.206a.3.3 0 0 1-.082.064.2.2 0 0 1-.097.022"/><path fill="#E0E1E2" d="M42.22 25.55c-6.395 0-11.652-4.839-12.303-11.05q-.066.647-.064 1.299c0 6.82 5.536 12.348 12.367 12.348S54.588 22.62 54.588 15.8q0-.652-.07-1.299c-.65 6.211-5.908 11.05-12.298 11.05"/><path fill="#2E3A58" d="M41.376 29.853c-3.059.002-6.024-1.125-8.39-3.19-2.365-2.064-3.986-4.938-4.584-8.131a14.88 14.88 0 0 1 1.303-9.382c1.441-2.872 3.774-5.124 6.6-6.371a12.47 12.47 0 0 1 8.897-.468c2.928.945 5.457 2.94 7.157 5.648s2.465 5.959 2.165 9.2-1.646 6.27-3.809 8.573a13.1 13.1 0 0 1-4.282 3.056 12.4 12.4 0 0 1-5.057 1.065m0-26.528c-2.708 0-5.332 1-7.424 2.83s-3.525 4.375-4.053 7.203a13.17 13.17 0 0 0 1.16 8.304c1.277 2.541 3.342 4.533 5.845 5.636a11.04 11.04 0 0 0 7.877.41c2.59-.838 4.829-2.606 6.333-5.003s2.18-5.276 1.914-8.144c-.266-2.87-1.458-5.551-3.373-7.589a11.6 11.6 0 0 0-3.797-2.706 11 11 0 0 0-4.482-.941"/><path fill="#1682FC" d="M41.794 25.588c-1.239 0-2.467-.215-3.626-.635a.28.28 0 0 1-.16-.144.27.27 0 0 1-.008-.21.27.27 0 0 1 .15-.15.3.3 0 0 1 .218-.006 10 10 0 0 0 3.426.6.3.3 0 0 1 .2.08.27.27 0 0 1 .084.193.26.26 0 0 1-.083.193.28.28 0 0 1-.201.08m1.263-.075a.3.3 0 0 1-.189-.07.26.26 0 0 1-.09-.173.26.26 0 0 1 .056-.198.3.3 0 0 1 .186-.104 9.9 9.9 0 0 0 3.315-1.014.3.3 0 0 1 .21-.011.28.28 0 0 1 .16.13.26.26 0 0 1 .025.2.27.27 0 0 1-.126.16 10.4 10.4 0 0 1-3.51 1.075zM35.2 23.188a.3.3 0 0 1-.19-.066 9.9 9.9 0 0 1-2.273-2.779.26.26 0 0 1 .031-.297.295.295 0 0 1 .3-.087c.073.021.134.069.17.132a9.4 9.4 0 0 0 2.152 2.623.27.27 0 0 1 .026.383.29.29 0 0 1-.216.09m14.077-.858a.3.3 0 0 1-.152-.046.3.3 0 0 1-.104-.116.27.27 0 0 1 .04-.291 9.1 9.1 0 0 0 1.79-2.86.28.28 0 0 1 .148-.136.3.3 0 0 1 .206-.003.28.28 0 0 1 .154.13c.033.06.041.13.023.196a9.8 9.8 0 0 1-1.895 3.03.271.271 0 0 1-.21.096m-17.36-5.118a.3.3 0 0 1-.19-.067.27.27 0 0 1-.095-.17 10 10 0 0 1-.073-1.196 9.4 9.4 0 0 1 .289-2.33.27.27 0 0 1 .128-.168.289.289 0 0 1 .391.092c.039.062.051.137.034.208a8.8 8.8 0 0 0-.206 3.328.26.26 0 0 1-.056.202.28.28 0 0 1-.191.1zm19.828-1.21a.3.3 0 0 1-.2-.08.27.27 0 0 1-.084-.193 8.9 8.9 0 0 0-.647-3.278.26.26 0 0 1 .007-.206.28.28 0 0 1 .156-.142.3.3 0 0 1 .309.066.3.3 0 0 1 .06.09 9.4 9.4 0 0 1 .683 3.47.26.26 0 0 1-.083.193.28.28 0 0 1-.201.08M33.59 10.65a.3.3 0 0 1-.158-.046.27.27 0 0 1-.12-.174.26.26 0 0 1 .046-.204 10.1 10.1 0 0 1 2.6-2.501.294.294 0 0 1 .395.065.263.263 0 0 1-.074.378 9.5 9.5 0 0 0-2.452 2.366.304.304 0 0 1-.237.116m15.618-.954a.3.3 0 0 1-.21-.09 9.7 9.7 0 0 0-2.747-2.048.28.28 0 0 1-.142-.16.26.26 0 0 1 .021-.208.3.3 0 0 1 .168-.133.3.3 0 0 1 .216.017 10.2 10.2 0 0 1 2.905 2.169.27.27 0 0 1-.021.388.3.3 0 0 1-.19.065m-9.83-2.9a.3.3 0 0 1-.173-.058.27.27 0 0 1-.106-.254.26.26 0 0 1 .11-.178.3.3 0 0 1 .101-.044 10.8 10.8 0 0 1 3.678-.227c.07.013.133.05.176.106a.264.264 0 0 1-.043.368.3.3 0 0 1-.196.066 11 11 0 0 0-1.131-.06c-.791-.002-1.58.09-2.347.272zM43.784 14.214v-3.979h-3.98v3.979h-3.98v3.979h3.98v3.983h3.98v-3.983h3.98v-3.98z"/><path fill="#2E3A58" d="M42.22 58c-1.424 0-2.839-.221-4.195-.655A57.716 57.716 0 0 1 .654 19.975a13.76 13.76 0 0 1 3.3-13.847l4.438-4.509a5.44 5.44 0 0 1 7.713-.03l5.768 5.773a5.43 5.43 0 0 1 0 7.677l-2.477 2.478a3.06 3.06 0 0 0-.691 3.255c2.01 5.23 4.204 8.926 6.9 11.622s6.393 4.89 11.628 6.9a3.06 3.06 0 0 0 3.25-.685l2.478-2.483a5.44 5.44 0 0 1 7.682 0l5.768 5.773a5.433 5.433 0 0 1-.03 7.708l-4.504 4.438A13.77 13.77 0 0 1 42.22 58m-3.727-2.107a12.24 12.24 0 0 0 12.313-2.935l4.509-4.438a3.91 3.91 0 0 0 .02-5.544l-5.768-5.773a3.915 3.915 0 0 0-5.53 0l-2.478 2.482a4.57 4.57 0 0 1-4.874 1.031c-5.438-2.092-9.302-4.392-12.156-7.245-2.854-2.854-5.154-6.713-7.246-12.156a4.57 4.57 0 0 1 1.036-4.875l2.478-2.477a3.91 3.91 0 0 0 0-5.525l-5.768-5.773a3.9 3.9 0 0 0-2.762-1.142h-.016A3.87 3.87 0 0 0 9.48 2.69L5.041 7.194a12.24 12.24 0 0 0-2.935 12.313 56.14 56.14 0 0 0 36.387 36.386"/></svg>
